packages/foundations/assets/icons/functional/images/maps/road_sign_12.svg

<svg width="12" height="12" viewBox="0 0 12 12" fill="none" xmlns="http://www.w3.org/2000/svg">
<g clip-path="url(#clip0_232_317)">
<path fill-rule="evenodd" clip-rule="evenodd" d="M8.0788 1.0769C8.46342 1.0769 8.90196 1.26921 9.13273 1.55764L10.3827 3.28847C10.5943 3.53844 10.6904 3.86534 10.6904 4.15383C10.6904 4.46152 10.5943 4.75001 10.3827 5.01918L9.13111 6.71149C8.86182 7.0577 8.51734 7.23075 8.075 7.23075H6.23265V9.69229H8.0596C8.40569 9.69229 8.69419 9.96152 8.69419 10.3077C8.69419 10.6346 8.46342 10.9231 8.0596 10.9231H3.15572C2.82883 10.9231 2.54034 10.6538 2.54034 10.3077C2.54034 9.96152 2.80957 9.69229 3.15572 9.69229H5.00188V7.23075H2.69419C1.92495 7.23075 1.30957 6.61537 1.30957 5.86533V2.48072C1.30957 1.71149 1.92495 1.0769 2.69419 1.0769H8.0788ZM8.075 2.30767H2.54034V5.99998H8.075L9.45962 4.15383L8.075 2.30767Z" fill="#1A1C1F"/>
</g>
<defs>
<clipPath id="clip0_232_317">
<rect width="12" height="12" fill="white"/>
</clipPath>
</defs>
</svg>

<svg xmlns="http://www.w3.org/2000/svg" width="12" height="12" fill="none"><g clip-path="url(#a)"><path fill="#1A1C1F" fill-rule="evenodd" d="M8.079 1.077c.384 0 .823.192 1.054.48l1.25 1.731c.211.25.307.577.307.866 0 .308-.096.596-.307.865L9.13 6.711c-.27.347-.614.52-1.056.52H6.233v2.461H8.06c.346 0 .634.27.634.616 0 .327-.23.615-.634.615H3.156a.62.62 0 0 1-.616-.615c0-.346.27-.616.616-.616h1.846V7.231H2.694c-.769 0-1.384-.616-1.384-1.366V2.481c0-.77.615-1.404 1.384-1.404zm-.004 1.23H2.54V6h5.535L9.46 4.154z" clip-rule="evenodd"/></g><defs><clipPath id="a"><path fill="#fff" d="M0 0h12v12H0z"/></clipPath></defs></svg>
